X:1
T:The Blessed Sun Has Now Gone Down
T:Hugo Distler
T:Nikolaus Herman (1480 - 1561)
T:46.  The Blessed Sun Has Now Gone Down Hinunter ist der Sonne Schein Vespers
T:Bärenreiter
T:Bärenreiter
T:Bärenreiter
T:Bärenreiter
C:Hugo Distler
Z:Nikolaus Herman
Z:(1480 - 1561)
Z:Bärenreiter
%%score [ ( 1 2 ) ( 3 4 ) ( 5 6 ) ]
L:1/8
Q:1/4=80
M:3/2
K:Bmin
V:1 treble nm="Soprano"
V:2 treble 
V:3 treble nm="Alto 1"
V:4 treble 
V:5 treble nm="Alto 2"
V:6 treble 
V:1
 B4 | B2 E2 (G3 A B2) A2 |[M:2/2] G4 F4 | !breath!E2 B2 G3 E | (GABc d)d (e2- | e2 ^dc) d4 | %6
w: 1. The|bles- sed sun _ _ has|now gone|down, and now is|dark- * * * * ness all|_ _ _ a-|
w: 3. O|set Your an- * * gel|watch in|place that Sa- tan|not _ _ _ _ cause us|_ _ _ dis-|
[M:3/2] !breath!e2 e4 ^d2 e4 | !breath!B2 e2 =d4 =c4 |[M:2/2] B8 | z2 B2 A2 F2 | (G2 FE) ^D2 E2- | %11
w: round. En- light- en|us, O Lord of|Light,|that we not|stum- * * ble in|
w: grace; from ter- ror|and ca- la- mi-|ty|this night pro-|tect _ _ us faith-|
[M:3/2] E2 F2 ^G4 ||[M:3/2] z4 | z2 A2 A4 E2 G2- |[M:2/2] GA B2 (G2 F2- |[M:3/2] FE D2) E4 z4 | %16
w: _ the night.||2. Where- in we have|_ pro- voked Your _|_ _ _ wrath,|
w: * ful- ly.|||||
 z2 B2 G2 E2 (GABc) |[M:2/2] d2 e4 ^d2 | !breath!e2 e2 c2 d2 |[M:3/2] B2 A2 =c2 c2 !breath!B4 | %20
w: for- give and help _ _ _|us find the|path, and mark it|not to our souls' debt,|
w: ||||
 B4 A2 F2 G2 (FE) | D2 =C2 E8 |] %22
w: but let us sleep in _|peace- ful rest.|
w: ||
V:2
 x4 | x12 |[M:2/2] x8 | x8 | x8 | x8 |[M:3/2] x12 | B2 =c2 B4 A4 |[M:2/2] B8 | x8 | x8 | %11
[M:3/2] x8 ||[M:3/2] x4 | x12 |[M:2/2] x8 |[M:3/2] x12 | x12 |[M:2/2] x8 | x8 |[M:3/2] x12 | x12 | %21
 x12 |] %22
V:3
 G2 E2- | E2 D2 =C4 D2 E2- |[M:2/2] E2 E2 !breath!B,4 | F2 (F3 E) D2 | (E4 F2) ^G2 | (A3 ^G) F4 | %6
w: 1. The bles-|* sed sun has now|_ gone down,|and now _ is|dark- * ness|all _ a-|
w: 3. O set|_ Your an- gel watch|_ in place|that Sa- * tan|not _ cause|us _ dis-|
[M:3/2] !breath!^G2 G4 F2 G4 | !breath!F2 E2 =G4 A4 |[M:2/2] !breath!F2 F2 E2 C2 | D4 C4 | %10
w: round. En- light- en|us, O Lord of|Light, that we not|stum- ble|
w: grace; from ter- ror|and ca- la- mi-|ty this night pro-|tect us|
 B,4 B,4 |[M:3/2] E8 ||[M:3/2] E4 | E2 A,2 (=C3 D E)E D2 |[M:2/2] (=C2 B,A, B,4) | %15
w: in the|night.|2. Where-|in we have _ _ pro- voked|Your _ _ _|
w: faith- ful-|ly.||||
[M:3/2] !breath!A,4 E4 =C2 A,2 | (=CDEF G2) A2 (A2 F2- |[M:2/2] F2) ^G2 !breath!A2 B2 | %18
w: wrath, for- give and|help _ _ _ _ us find _|_ the path, and|
w: |||
 ^GG A2 E2 =G2 |[M:3/2] F4 !breath!E4 (E4 | D2) B,2 (=C2 B,A,) G,2 A,2 | B,2 B,2 B,8 |] %22
w: mark it not to our|souls' debt, but|_ let us _ _ sleep in|peace- ful rest.|
w: ||||
V:4
 x4 | x12 |[M:2/2] x8 | x8 | x8 | x8 |[M:3/2] x12 | x12 |[M:2/2] x8 | x8 | x8 |[M:3/2] x8 || %12
[M:3/2] x4 | x12 |[M:2/2] x8 |[M:3/2] x12 | x12 |[M:2/2] x8 | x8 |[M:3/2] x12 | x12 | %21
 B,2 B,2 (A,4 ^G,4) |] %22
V:5
 z4 | z4 E4 E2 A,2 |[M:2/2] (=C3 D E2) D2 | =C2 C2 B,4 | z2 F2 D2 B,2 | (EF) (^GA) B2 B2 | %6
w: |1. The bles- sed|sun _ _ has|now gone down,|and now is|dark- * ness _ all a-|
w: |3. O set Your|an- * * gel|watch in place|that Sa- tan|not _ cause _ us dis-|
[M:3/2] !breath!E2 B4 B,2 B,2 E2- | !breath!E2 =C2 D4 E4 |[M:2/2] ^D4 z2 ^C2 | B,2 G,2 (A,B,CD | %10
w: round. En- light- en us,|_ O Lord of|Light, that|we not stum- * * *|
w: grace; from ter- ror and|_ ca- la- mi-|ty this|night pro- tect _ _ _|
 E4) F2 ^G2- |[M:3/2] G2 B2 B4 ||[M:3/2] z4 | z12 |[M:2/2] z8 |[M:3/2] z12 | z12 |[M:2/2] z8 | z8 | %19
w: * ble in|_ the night.||||||||
w: _ us faith-|* ful- ly.||||||||
[M:3/2] z12 | z12 | z12 |] %22
w: |||
w: |||
V:6
 x4 | x12 |[M:2/2] x8 | x8 | x8 | x8 |[M:3/2] x12 | x8 E4 |[M:2/2] B,4 x2 C2 | x8 | x8 | %11
[M:3/2] x8 ||[M:3/2] x4 | x12 |[M:2/2] x8 |[M:3/2] x12 | x12 |[M:2/2] x8 | x8 |[M:3/2] x12 | x12 | %21
 x12 |] %22

